assets/images/simple-illustrations/simple-illustration__wallet-alt2.svg

<svg width="48" height="48" viewBox="0 0 48 48" fill="none" xmlns="http://www.w3.org/2000/svg">
<path d="M35.7667 23.1046H10.7338C9.54017 23.1046 8.57251 24.0723 8.57251 25.266V41.6124C8.57251 42.8061 9.54017 43.7737 10.7338 43.7737H35.7667C36.9604 43.7737 37.928 42.8061 37.928 41.6124V25.266C37.928 24.0723 36.9604 23.1046 35.7667 23.1046Z" fill="#D18000"/>
<path d="M11.6395 26.8173L13.229 22.9932H10.402C10.402 22.9932 8.56909 23.6618 8.56909 24.9346V26.8672L11.6366 26.8144L11.6395 26.8173Z" fill="#780505"/>
<path d="M33.4175 24.0636C33.4175 24.2747 30.4819 27.0637 30.4819 27.0637L37.7871 26.9522V24.9346C37.7871 24.9346 37.3677 23.1017 36.092 23.1017C34.8163 23.1017 33.4175 23.8466 33.4175 24.0607V24.0636Z" fill="#780505"/>
<path d="M11.6398 26.8174H30.4848C30.4848 26.8174 36.9395 21.6149 38.2357 17.4623C39.5319 13.3097 39.4674 12.7261 38.4938 12.339C37.5201 11.9519 28.0507 7.4738 28.0507 7.4738L25.9099 12.339C25.9099 12.339 25.0653 4.68488 23.1855 3.64673L10.5371 6.89021C10.5371 6.89021 13.9741 12.4681 13.7161 17.9169C13.458 23.3657 11.6398 26.8174 11.6398 26.8174V26.8174Z" fill="#00B268"/>
<path d="M19.2733 23.8172C21.2071 23.8172 22.7748 21.7072 22.7748 19.1044C22.7748 16.5017 21.2071 14.3917 19.2733 14.3917C17.3394 14.3917 15.7717 16.5017 15.7717 19.1044C15.7717 21.7072 17.3394 23.8172 19.2733 23.8172Z" fill="#5BE3AA"/>
<path d="M15.7278 10.9753C15.7278 10.9753 17.3495 10.3917 16.5724 9.28902C15.7952 8.18636 15.2087 7.60277 14.7571 8.05732C14.3055 8.51188 14.3025 9.35354 14.4316 9.67906C14.5606 10.0046 15.7278 10.9753 15.7278 10.9753V10.9753Z" fill="#5BE3AA"/>
<path d="M23.121 7.34182C23.121 7.34182 22.6019 5.59105 21.5638 6.43271C20.5256 7.27437 20.7309 7.57936 20.7866 7.92541C20.8424 8.27146 21.9538 9.48263 22.3439 9.22163C23.6401 8.96356 23.121 7.34182 23.121 7.34182Z" fill="#5BE3AA"/>
<path d="M29.9338 10.4563C29.9338 10.4563 28.6376 10.7144 28.3121 11.559C27.9866 12.4036 28.2476 13.2452 28.7021 13.3097C29.1567 13.3743 30.2594 12.6616 30.3884 12.2716C30.5174 11.8816 29.9338 10.4563 29.9338 10.4563Z" fill="#5BE3AA"/>
<path d="M36.2239 13.5708C36.2239 13.5708 34.9277 13.8289 34.6021 14.6735C34.2766 15.5181 34.5376 16.3597 34.9922 16.4242C35.4467 16.4888 36.5494 15.7761 36.6784 15.3861C36.8075 14.9961 36.2239 13.5708 36.2239 13.5708Z" fill="#5BE3AA"/>
<path d="M29.024 24.8583C29.024 24.8583 31.4229 19.2805 28.8304 17.9168C26.238 16.5531 25.1324 18.8259 25.1324 18.8259L23.5752 25.1838C23.5752 25.1838 23.6251 26.002 23.7687 26.2865C23.9124 26.571 27.0122 26.7411 27.0122 26.7411L29.024 24.8613V24.8583Z" fill="#5BE3AA"/>
<path d="M35.0156 33.5008V30.4069C35.0156 30.4069 35.1036 28.9934 33.822 28.9934H14.7658C14.7658 28.9934 13.5723 28.9934 13.5723 30.143V33.4158L35.0156 33.5038V33.5008Z" fill="#FCDCFF"/>
<path d="M14.1033 29.1664H12.247C12.247 29.1664 11.4962 28.9465 11.4522 30.36L11.3643 33.19L13.5755 33.4099V30.1371L14.1063 29.1635L14.1033 29.1664Z" fill="#FBCCFF"/>
<path d="M20.3084 30.8029H16.3582V33.278H20.3084V30.8029Z" fill="#F9B5FE"/>
<path d="M13.4114 33.2192V30.2866C13.4114 29.5622 13.9979 28.9728 14.7252 28.9728H33.7344C34.4588 28.9728 35.0482 29.5593 35.0482 30.2866V33.3952" stroke="#002140" stroke-width="0.823521" stroke-linecap="round" stroke-linejoin="round"/>
<path d="M16.1824 33.1606V30.8615H20.2499V33.2193" stroke="#002140" stroke-width="0.823521" stroke-linecap="round" stroke-linejoin="round"/>
<path d="M22.3701 31.0961H26.4377" stroke="#002140" stroke-width="0.823521" stroke-linecap="round" stroke-linejoin="round"/>
<path d="M28.7371 31.0961H32.8046" stroke="#002140" stroke-width="0.823521" stroke-linecap="round" stroke-linejoin="round"/>
<path d="M22.3701 32.2778H26.4377" stroke="#002140" stroke-width="0.823521" stroke-linecap="round" stroke-linejoin="round"/>
<path d="M11.4048 33.2192V30.2866C11.4048 29.5622 11.9913 28.9728 12.7186 28.9728H17.0061" stroke="#002140" stroke-width="0.823521" stroke-linecap="round" stroke-linejoin="round"/>
<path d="M35.1211 22.8848H35.5552C36.8631 22.8848 37.9247 23.9464 37.9247 25.2543V41.6242C37.9247 42.9322 36.8631 43.9938 35.5552 43.9938H10.8303C9.5223 43.9938 8.46069 42.9322 8.46069 41.6242V25.2543C8.46069 23.9464 9.5223 22.8848 10.8303 22.8848H12.9124" stroke="#002140" stroke-width="0.823521" stroke-linecap="round" stroke-linejoin="round"/>
<path d="M8.46069 26.8438H37.8162" stroke="#002140" stroke-width="0.823521" stroke-linecap="round" stroke-linejoin="round"/>
<path d="M8.46069 33.7676H37.8162" stroke="#002140" stroke-width="0.823521" stroke-linecap="round" stroke-linejoin="round"/>
<path d="M11.7163 26.4009C16.6285 15.3889 10.6987 6.9166 10.6987 6.9166C10.6987 6.9166 21.2034 4.20685 23.4058 3.52942C29.5056 14.2042 22.0509 24.1985 23.9131 26.571" stroke="#002140" stroke-width="0.823521" stroke-linecap="round" stroke-linejoin="round"/>
<path d="M30.2063 26.8438C31.7195 25.9904 37.8721 22.005 39.5027 12.8933L27.8132 7.25977C27.8132 7.25977 27.4144 10.3244 25.8542 12.5473" stroke="#002140" stroke-width="0.823521" stroke-linecap="round" stroke-linejoin="round"/>
<path d="M16.0184 10.9191C16.6601 10.6485 16.9012 9.76729 16.5568 8.95099C16.2125 8.13469 15.4132 7.69237 14.7715 7.96304C14.1298 8.23371 13.8887 9.11487 14.2331 9.93116C14.5774 10.7475 15.3767 11.1898 16.0184 10.9191Z" fill="#085239" stroke="#002140" stroke-width="0.823521" stroke-linecap="round" stroke-linejoin="round"/>
<path d="M22.6268 9.25616C23.2685 8.98549 23.5096 8.10433 23.1652 7.28803C22.8209 6.47173 22.0216 6.02941 21.3799 6.30008C20.7382 6.57074 20.4971 7.4519 20.8415 8.2682C21.1858 9.0845 21.9851 9.52682 22.6268 9.25616Z" fill="#03D47C" stroke="#002140" stroke-width="0.823521" stroke-linecap="round" stroke-linejoin="round"/>
<path d="M30.5624 12.3522C30.8996 11.5329 30.6508 10.6539 30.0068 10.3888C29.3628 10.1238 28.5673 10.573 28.2301 11.3923C27.893 12.2116 28.1417 13.0906 28.7858 13.3557C29.4298 13.6207 30.2252 13.1714 30.5624 12.3522Z" stroke="#002140" stroke-width="0.823521" stroke-linecap="round" stroke-linejoin="round"/>
<path d="M36.7426 15.6576C37.0798 14.8383 36.831 13.9593 36.187 13.6942C35.5429 13.4292 34.7475 13.8785 34.4103 14.6977C34.0731 15.517 34.3219 16.396 34.9659 16.6611C35.61 16.9261 36.4054 16.4769 36.7426 15.6576Z" stroke="#002140" stroke-width="0.823521" stroke-linecap="round" stroke-linejoin="round"/>
<path d="M22.6262 19.3218C22.9446 16.582 21.7029 14.1866 19.8528 13.9716C18.0027 13.7565 16.2447 15.8032 15.9262 18.5431C15.6078 21.2829 16.8494 23.6782 18.6996 23.8933C20.5497 24.1083 22.3077 22.0616 22.6262 19.3218Z" stroke="#002140" stroke-width="0.823521" stroke-linecap="round" stroke-linejoin="round"/>
<path d="M25.3203 18.3861C26.3027 17.6265 27.4142 17.345 28.3673 17.7379C30.0888 18.4476 30.6342 21.0899 29.5873 23.6413C29.0037 25.0607 28.0476 26.1546 27.0183 26.7206" stroke="#002140" stroke-width="0.823521" stroke-linecap="round" stroke-linejoin="round"/>
</svg>

<svg xmlns="http://www.w3.org/2000/svg" width="48" height="48" fill="none" viewBox="0 0 48 48"><path fill="#d18000" d="M35.767 23.105H10.734a2.16 2.16 0 0 0-2.161 2.161v16.346c0 1.194.967 2.162 2.16 2.162h25.034a2.16 2.16 0 0 0 2.161-2.162V25.266a2.16 2.16 0 0 0-2.161-2.161"/><path fill="#780505" d="m11.64 26.817 1.589-3.824h-2.827s-1.833.669-1.833 1.942v1.932l3.068-.053zm21.778-2.753c0 .21-2.936 3-2.936 3l7.305-.112v-2.017s-.42-1.833-1.695-1.833-2.675.745-2.675.959z"/><path fill="#00b268" d="M11.64 26.817h18.845s6.455-5.202 7.75-9.355c1.297-4.152 1.232-4.736.259-5.123-.974-.387-10.443-4.865-10.443-4.865l-2.141 4.865s-.845-7.654-2.724-8.692L10.537 6.89s3.437 5.578 3.18 11.027c-.259 5.449-2.077 8.9-2.077 8.9"/><path fill="#5be3aa" d="M19.273 23.817c1.934 0 3.502-2.11 3.502-4.713 0-2.602-1.568-4.712-3.502-4.712s-3.501 2.11-3.501 4.712c0 2.603 1.567 4.713 3.501 4.713m-3.545-12.842s1.621-.583.844-1.686-1.363-1.686-1.815-1.232c-.451.455-.454 1.297-.325 1.622s1.296 1.296 1.296 1.296m7.393-3.633s-.52-1.75-1.557-.91c-1.038.842-.833 1.147-.777 1.493s1.167 1.558 1.557 1.297c1.296-.258.777-1.88.777-1.88m6.813 3.114s-1.296.258-1.622 1.103c-.325.845-.064 1.686.39 1.75.455.065 1.557-.647 1.686-1.037.13-.39-.454-1.816-.454-1.816m6.29 3.114s-1.296.259-1.622 1.104c-.325.844-.064 1.686.39 1.75.455.065 1.557-.648 1.686-1.038.13-.39-.454-1.815-.454-1.815m-7.2 11.287s2.399-5.578-.194-6.941c-2.592-1.364-3.698.909-3.698.909l-1.557 6.358s.05.818.194 1.102c.143.285 3.243.455 3.243.455l2.012-1.88z"/><path fill="#fcdcff" d="M35.016 33.5v-3.093s.088-1.414-1.194-1.414H14.766s-1.194 0-1.194 1.15v3.273l21.444.088z"/><path fill="#fbccff" d="M14.103 29.166h-1.856s-.75-.22-.795 1.194l-.088 2.83 2.211.22v-3.273l.531-.974z"/><path fill="#f9b5fe" d="M20.308 30.803h-3.95v2.475h3.95z"/><path stroke="#002140" stroke-linecap="round" stroke-linejoin="round" stroke-width=".824" d="M13.411 33.22v-2.933c0-.725.587-1.314 1.314-1.314h19.01c.724 0 1.313.586 1.313 1.314v3.108"/><path stroke="#002140" stroke-linecap="round" stroke-linejoin="round" stroke-width=".824" d="M16.182 33.16v-2.298h4.068v2.357m2.12-2.123h4.068m2.299 0h4.068M22.37 32.278h4.068m-15.033.942v-2.933c0-.725.586-1.314 1.314-1.314h4.287"/><path stroke="#002140" stroke-linecap="round" stroke-linejoin="round" stroke-width=".824" d="M35.121 22.885h.434a2.37 2.37 0 0 1 2.37 2.37v16.37a2.37 2.37 0 0 1-2.37 2.369H10.83a2.37 2.37 0 0 1-2.37-2.37v-16.37a2.37 2.37 0 0 1 2.37-2.37h2.082m-4.452 3.96h29.356M8.46 33.768h29.356"/><path stroke="#002140" stroke-linecap="round" stroke-linejoin="round" stroke-width=".824" d="M11.716 26.4C16.63 15.39 10.7 6.918 10.7 6.918s10.504-2.71 12.707-3.388c6.1 10.675-1.355 20.67.507 23.042"/><path stroke="#002140" stroke-linecap="round" stroke-linejoin="round" stroke-width=".824" d="M30.206 26.844c1.514-.854 7.666-4.839 9.297-13.95L27.813 7.26s-.399 3.064-1.959 5.287"/><path fill="#085239" stroke="#002140" stroke-linecap="round" stroke-linejoin="round" stroke-width=".824" d="M16.018 10.92c.642-.271.883-1.153.539-1.969s-1.144-1.259-1.785-.988c-.642.27-.883 1.152-.539 1.968s1.144 1.259 1.785.988"/><path fill="#03d47c" stroke="#002140" stroke-linecap="round" stroke-linejoin="round" stroke-width=".824" d="M22.627 9.256c.642-.27.883-1.152.538-1.968-.344-.816-1.143-1.259-1.785-.988s-.883 1.152-.538 1.968c.344.816 1.143 1.259 1.785.988"/><path stroke="#002140" stroke-linecap="round" stroke-linejoin="round" stroke-width=".824" d="M30.562 12.352c.338-.82.089-1.698-.555-1.963s-1.44.184-1.777 1.003c-.337.82-.088 1.699.556 1.964s1.44-.185 1.776-1.004m6.181 3.306c.337-.82.088-1.699-.556-1.964s-1.44.184-1.777 1.004c-.337.819-.088 1.698.556 1.963s1.44-.184 1.777-1.003m-14.117 3.664c.319-2.74-.923-5.135-2.773-5.35s-3.608 1.831-3.927 4.571.923 5.135 2.774 5.35 3.608-1.831 3.926-4.571m2.694-.936c.983-.76 2.094-1.041 3.047-.648 1.722.71 2.267 3.352 1.22 5.903-.583 1.42-1.54 2.514-2.569 3.08"/></svg>
